public/log-out.svg

<svg width="32" height="32" viewBox="0 0 32 32" fill="none" xmlns="http://www.w3.org/2000/svg">
<path d="M10 16C10 15.7348 10.1054 15.4804 10.2929 15.2929C10.4804 15.1054 10.7348 15 11 15H20V8.5C20 6.5 17.8881 5 16 5H6.5C5.57205 5.00099 4.68238 5.37006 4.02622 6.02622C3.37006 6.68238 3.00099 7.57205 3 8.5V23.5C3.00099 24.428 3.37006 25.3176 4.02622 25.9738C4.68238 26.6299 5.57205 26.999 6.5 27H16.5C17.428 26.999 18.3176 26.6299 18.9738 25.9738C19.6299 25.3176 19.999 24.428 20 23.5V17H11C10.7348 17 10.4804 16.8946 10.2929 16.7071C10.1054 16.5196 10 16.2652 10 16Z" fill="#B1B1B8"/>
<path d="M28.7069 15.2931L23.7069 10.2931C23.5178 10.1135 23.2661 10.0148 23.0053 10.0182C22.7445 10.0215 22.4954 10.1266 22.311 10.311C22.1266 10.4954 22.0215 10.7445 22.0182 11.0053C22.0148 11.2661 22.1135 11.5178 22.2931 11.7069L25.5856 15H20V17H25.5856L22.2931 20.2931C22.1964 20.3851 22.119 20.4954 22.0655 20.6177C22.0121 20.7401 21.9837 20.8718 21.982 21.0053C21.9803 21.1388 22.0053 21.2712 22.0556 21.3949C22.1059 21.5185 22.1804 21.6308 22.2748 21.7252C22.3692 21.8196 22.4815 21.8941 22.6051 21.9444C22.7288 21.9947 22.8612 22.0197 22.9947 22.018C23.1282 22.0163 23.2599 21.9879 23.3822 21.9345C23.5046 21.881 23.6149 21.8036 23.7069 21.7069L28.7069 16.7069C28.8943 16.5194 28.9995 16.2651 28.9995 16C28.9995 15.7349 28.8943 15.4806 28.7069 15.2931Z" fill="#B1B1B8"/>
</svg>

<svg xmlns="http://www.w3.org/2000/svg" width="32" height="32" fill="#b1b1b8" xmlns:v="https://vecta.io/nano"><path d="M10 16a1 1 0 0 1 1-1h9V8.5c0-2-2.112-3.5-4-3.5H6.5c-.928.001-1.818.37-2.474 1.026S3.001 7.572 3 8.5v15c.001.928.37 1.818 1.026 2.474S5.572 26.999 6.5 27h10c.928-.001 1.818-.37 2.474-1.026S19.999 24.428 20 23.5V17h-9a1 1 0 0 1-1-1z"/><path d="M28.707 15.293l-5-5a1 1 0 0 0-1.396.018 1 1 0 0 0-.018 1.396L25.586 15H20v2h5.586l-3.293 3.293c-.097.092-.174.202-.228.325a1 1 0 0 0-.01.777 1 1 0 0 0 .55.55 1 1 0 0 0 .777-.01 1 1 0 0 0 .325-.228l5-5a1 1 0 0 0 0-1.414z"/></svg>
